; generated by PrusaSlicer 2.9.4 on 2026-02-10 at 03:40:28 UTC

; 

; external perimeters extrusion width = 0.50mm
; perimeters extrusion width = 0.50mm
; infill extrusion width = 0.50mm
; solid infill extrusion width = 0.50mm
; top infill extrusion width = 0.30mm
; support material extrusion width = 0.40mm
; first layer extrusion width = 0.50mm

M201 X500 Y500 Z100 E5000 ; sets maximum accelerations, mm/sec^2
M203 X500 Y500 Z10 E60 ; sets maximum feedrates, mm / sec
M204 S500 T1000 ; sets acceleration (S) and retract acceleration (R), mm/sec^2
M205 X8.00 Y8.00 Z0.40 E5.00 ; sets the jerk limits, mm/sec
M205 S0 T0 ; sets the minimum extruding and travel feed rate, mm/sec

; printing object Stringing Test.STL id:0 copy 0
; stop printing object Stringing Test.STL id:0 copy 0

;TYPE:Custom
G90 ; use absolute coordinates
M83 ; extruder relative mode
M104 S190 ; set temporary nozzle temp to prevent oozing during homing
M140 S80 ; set final bed temp ; G4 S30 ; allow partial nozzle warmup
G28 ; home all axis
G1 Z50 F240
G1 X2.0 Y10 F3000
M104 S245 ; set final nozzle temp
M190 S80 ; wait for bed temp to stabiliz; M109 S245 ; wait for nozzle temp to stabilize
G1 Z0 F240
G1 Z-0.06 F240
G1 Z0.2 F240
G92 E0
G1 X2.0 Y140 E10 F1500 ; prime the nozzle
G1 X2.3 Y140 F5000
G92 E0
G1 X2.3 Y10 E10 F1200 ; prime the nozzle
G92 E0
G21 ; set units to millimeters
G90 ; use absolute coordinates
M83 ; use relative distances for extrusion
; Filament gcode
M107
;LAYER_CHANGE
;Z:0.32
;HEIGHT:0.32
G1 E-6 F900
G1 Z.32 F7800
G1 X67.023 Y92.718
G1 E6 F900
M204 S100
;TYPE:Skirt/Brim
;WIDTH:0.5
G1 F1200
G1 X68.339 Y91.801 E.08468
G1 X70.229 Y90.719 E.11497
G1 X72.377 Y89.774 E.12389
G1 X74.278 Y89.156 E.10553
G1 X75.635 Y88.83 E.07368
G1 X77.693 Y88.508 E.10997
G1 X79.847 Y88.386 E.1139
G1 X140.063 Y88.385 E3.179
G1 X142.128 Y88.49 E.10916
G1 X143.512 Y88.672 E.07369
G1 X145.548 Y89.109 E.10994
G1 X147.623 Y89.774 E.11503
G1 X148.912 Y90.308 E.07366
G1 X150.766 Y91.256 E.10993
G1 X152.598 Y92.436 E.11504
G1 X153.705 Y93.285 E.07365
G1 X155.251 Y94.682 E.11
G1 X156.715 Y96.295 E.115
G1 X157.564 Y97.402 E.07365
G1 X158.744 Y99.234 E.11504
G1 X159.692 Y101.088 E.10993
G1 X160.226 Y102.377 E.07366
G1 X160.867 Y104.359 E.10997
G1 X161.328 Y106.488 E.115
G1 X161.51 Y107.872 E.07369
G1 X161.616 Y110.048 E.11501
G1 X161.51 Y112.128 E.10995
G1 X161.328 Y113.512 E.07369
G1 X160.867 Y115.641 E.115
G1 X160.226 Y117.623 E.10997
G1 X159.692 Y118.912 E.07366
G1 X158.696 Y120.849 E.11499
G1 X157.564 Y122.598 E.10999
G1 X156.715 Y123.705 E.07365
G1 X155.318 Y125.251 E.11
G1 X153.705 Y126.715 E.115
G1 X152.598 Y127.564 E.07365
G1 X150.849 Y128.696 E.10999
G1 X148.912 Y129.692 E.11499
G1 X147.623 Y130.226 E.07366
G1 X145.641 Y130.867 E.10997
G1 X143.512 Y131.328 E.115
G1 X142.128 Y131.51 E.07369
G1 X140.11 Y131.615 E.10668
G1 X79.979 Y131.616 E3.17451
G1 X78.737 Y131.578 E.0656
G1 X76.749 Y131.369 E.10553
G1 X74.278 Y130.844 E.13336
G1 X72.377 Y130.226 E.10553
G1 X71.252 Y129.766 E.06417
G1 X69.078 Y128.653 E.12894
G1 X67.402 Y127.564 E.10552
G1 X66.434 Y126.829 E.06417
G1 X65.439 Y125.974 E.06926
G1 X64.169 Y124.712 E.09452
G1 X62.485 Y122.667 E.13986
G1 X61.801 Y121.661 E.06422
G1 X60.801 Y119.93 E.10554
G1 X59.774 Y117.623 E.13332
G1 X59.109 Y115.548 E.11503
G1 X58.658 Y113.429 E.11437
G1 X58.417 Y111.179 E.11946
G1 X58.408 Y109.001 E.11498
G1 X58.631 Y106.749 E.11947
G1 X58.885 Y105.377 E.07366
G1 X59.457 Y103.275 E.11501
G1 X60.273 Y101.165 E.11943
G1 X61.256 Y99.234 E.11439
G1 X62.485 Y97.333 E.11951
G1 X63.905 Y95.572 E.11943
G1 X65.439 Y94.026 E.11498
G1 X66.977 Y92.756 E.1053
G1 E-6 F900
M204 S500
G1 X69.403 Y95.742 F7800
G1 E6 F900
M204 S100
G1 F1200
G1 X69.527 Y95.642 E.00841
G1 X70.348 Y95.077 E.05262
G1 X71.955 Y94.153 E.09786
G1 X73.644 Y93.403 E.09756
G1 X75.387 Y92.837 E.09675
G1 X78.127 Y92.327 E.14714
G1 X79.985 Y92.228 E.09823
G1 X140.021 Y92.228 E3.1695
G1 X141.85 Y92.324 E.09669
G1 X143.67 Y92.611 E.09727
G1 X145.449 Y93.084 E.09718
G1 X146.377 Y93.411 E.05194
G1 X148.061 Y94.161 E.09732
G1 X149.657 Y95.081 E.09725
G1 X151.872 Y96.775 E.14722
G1 X153.096 Y97.991 E.09109
G1 X154.362 Y99.531 E.10525
G1 X155.823 Y101.907 E.14725
G1 X156.576 Y103.589 E.09729
G1 X156.909 Y104.528 E.0526
G1 X157.375 Y106.262 E.09479
G1 X157.558 Y107.252 E.05315
G1 X157.748 Y109.073 E.09666
G1 X157.749 Y110.904 E.09666
G1 X157.56 Y112.736 E.09723
G1 X157.378 Y113.72 E.05283
G1 X156.905 Y115.484 E.09642
G1 X156.246 Y117.205 E.09729
G1 X155.414 Y118.847 E.09718
G1 X154.894 Y119.697 E.05261
G1 X153.825 Y121.168 E.096
G1 X152.598 Y122.535 E.09698
G1 X151.219 Y123.783 E.09819
G1 X150.439 Y124.383 E.05195
G1 X148.924 Y125.369 E.09543
G1 X148.039 Y125.85 E.05318
G1 X146.356 Y126.597 E.09721
G1 X144.62 Y127.161 E.09636
G1 X142.766 Y127.556 E.10008
G1 X140.015 Y127.772 E.14568
G1 X79.985 Y127.772 E3.16918
G1 X77.246 Y127.557 E.14505
G1 X74.539 Y126.912 E.14691
G1 X71.962 Y125.85 E.14715
G1 X70.308 Y124.897 E.10078
G1 X68.118 Y123.216 E.14575
G1 X66.786 Y121.885 E.09941
G1 X65.09 Y119.672 E.1472
G1 X63.764 Y117.227 E.14684
G1 X62.842 Y114.632 E.14539
G1 X62.454 Y112.825 E.09757
G1 X62.254 Y110.964 E.09881
G1 X62.228 Y109.986 E.05165
G1 X62.329 Y108.108 E.09929
G1 X62.623 Y106.272 E.09816
G1 X63.102 Y104.494 E.09721
G1 X63.764 Y102.773 E.09735
G1 X64.602 Y101.126 E.09756
G1 X65.61 Y99.57 E.09788
G1 X66.771 Y98.132 E.09757
G1 X68.088 Y96.811 E.09848
G1 X69.356 Y95.78 E.08628
M204 S500
G1 X69.628 Y96.114 F7800
M204 S100
G1 F1200
G1 X69.776 Y95.994 E.01006
G1 X70.588 Y95.436 E.05201
G1 X72.146 Y94.54 E.09488
G1 X73.793 Y93.808 E.09515
G1 X75.504 Y93.252 E.09498
G1 X77.25 Y92.879 E.09426
G1 X79.988 Y92.659 E.14501
G1 X140.018 Y92.659 E3.16918
G1 X141.81 Y92.754 E.09474
G1 X144.451 Y93.24 E.14177
G1 X147.061 Y94.162 E.14614
G1 X148.658 Y94.975 E.09461
G1 X150.162 Y95.949 E.0946
G1 X151.588 Y97.099 E.09671
G1 X152.773 Y98.277 E.08821
G1 X154.017 Y99.79 E.10341
G1 X154.998 Y101.296 E.09489
G1 X155.826 Y102.912 E.09586
G1 X156.5 Y104.666 E.0992
G1 X157.133 Y107.325 E.1443
G1 X157.318 Y109.101 E.09427
G1 X157.318 Y110.887 E.09429
G1 X157.133 Y112.674 E.09485
G1 X156.746 Y114.502 E.09865
G1 X155.85 Y117.035 E.14185
G1 X155.037 Y118.637 E.09484
G1 X153.486 Y120.901 E.14488
G1 X151.632 Y122.861 E.14243
G1 X150.181 Y124.037 E.0986
G1 X148.703 Y124.999 E.0931
G1 X147.839 Y125.468 E.0519
G1 X145.373 Y126.488 E.14089
G1 X142.694 Y127.13 E.14544
G1 X140.012 Y127.341 E.14203
G1 X79.988 Y127.341 E3.16887
G1 X77.307 Y127.131 E.14197
G1 X75.509 Y126.749 E.09704
G1 X73.768 Y126.182 E.09666
G1 X72.162 Y125.468 E.09279
G1 X71.343 Y125.025 E.04916
G1 X69.776 Y124.007 E.09865
G1 X68.411 Y122.9 E.09278
G1 X67.103 Y121.592 E.09766
G1 X65.449 Y119.433 E.14358
G1 X64.16 Y117.057 E.14271
G1 X63.52 Y115.395 E.09402
G1 X63.046 Y113.643 E.09582
G1 X62.685 Y110.946 E.14365
G1 X62.659 Y109.98 E.05102
G1 X62.758 Y108.149 E.09681
G1 X63.255 Y105.493 E.14265
G1 X63.816 Y103.772 E.09556
G1 X64.548 Y102.13 E.09491
G1 X65.449 Y100.567 E.09524
G1 X66.511 Y99.103 E.09548
G1 X68.382 Y97.127 E.14366
G1 X69.581 Y96.152 E.08159
M204 S500
G1 X69.853 Y96.487 F7800
M204 S100
G1 F1200
G1 X70.035 Y96.339 E.01238
G1 X72.336 Y94.927 E.14253
G1 X73.943 Y94.213 E.09284
G1 X75.621 Y93.667 E.09316
G1 X78.218 Y93.185 E.13945
G1 X79.991 Y93.09 E.09374
G1 X140.015 Y93.09 E3.16887
G1 X141.77 Y93.183 E.09278
G1 X143.502 Y93.457 E.09258
G1 X146.068 Y94.217 E.14128
G1 X147.669 Y94.93 E.09252
G1 X149.198 Y95.811 E.09316
G1 X151.304 Y97.424 E.14005
G1 X152.451 Y98.564 E.08538
G1 X153.671 Y100.049 E.10146
G1 X155.06 Y102.31 E.14009
G1 X156.092 Y104.805 E.14254
G1 X156.706 Y107.387 E.14011
G1 X156.887 Y109.129 E.09246
G1 X156.887 Y110.871 E.09197
G1 X156.537 Y113.529 E.14154
G1 X156.081 Y115.228 E.09287
G1 X155.453 Y116.865 E.09256
G1 X154.171 Y119.226 E.14183
G1 X153.147 Y120.634 E.09191
G1 X151.979 Y121.934 E.09226
G1 X149.923 Y123.692 E.14281
G1 X147.648 Y125.081 E.14072
G1 X146.057 Y125.787 E.09189
G1 X144.396 Y126.328 E.09222
G1 X142.632 Y126.703 E.09521
G1 X140.009 Y126.91 E.13891
G1 X79.991 Y126.91 E3.16855
G1 X77.369 Y126.704 E.13885
G1 X74.805 Y126.092 E.13916
G1 X72.352 Y125.081 E.14007
G1 X70.778 Y124.174 E.09591
G1 X68.695 Y122.575 E.13863
G1 X67.428 Y121.308 E.0946
G1 X65.814 Y119.202 E.14008
G1 X64.552 Y116.876 E.13971
G1 X63.672 Y114.397 E.13888
G1 X63.304 Y112.677 E.09286
G1 X63.115 Y110.917 E.09345
G1 X63.187 Y108.2 E.14349
G1 X63.467 Y106.453 E.09341
G1 X63.923 Y104.761 E.09251
G1 X64.556 Y103.114 E.09315
G1 X65.355 Y101.547 E.09286
G1 X66.315 Y100.068 E.09309
G1 X67.42 Y98.7 E.09284
G1 X68.675 Y97.443 E.09377
G1 X69.806 Y96.524 E.07694
M204 S500
G1 X70.093 Y96.898 F7800
M204 S100
G1 F1200
G1 X71.047 Y96.166 E.06348
G1 X72.527 Y95.314 E.09016
G1 X74.102 Y94.613 E.09101
G1 X75.738 Y94.082 E.09081
G1 X77.397 Y93.729 E.08954
G1 X79.993 Y93.522 E.13749
G1 X140.012 Y93.522 E3.1686
G1 X141.731 Y93.613 E.09088
G1 X144.24 Y94.077 E.1347
G1 X146.71 Y94.95 E.1383
G1 X148.237 Y95.728 E.09048
G1 X149.665 Y96.654 E.08985
G1 X151.02 Y97.749 E.09197
G1 X152.129 Y98.851 E.08254
G1 X153.326 Y100.307 E.09951
G1 X154.257 Y101.738 E.09013
G1 X155.043 Y103.274 E.09109
G1 X155.68 Y104.932 E.09377
G1 X156.279 Y107.448 E.13654
G1 X156.456 Y109.146 E.09013
G1 X156.456 Y110.854 E.09017
G1 X156.279 Y112.552 E.09013
G1 X155.916 Y114.268 E.0926
G1 X155.385 Y115.903 E.09076
G1 X154.284 Y118.216 E.13524
G1 X152.815 Y120.359 E.13717
G1 X151.046 Y122.228 E.13586
G1 X149.674 Y123.339 E.0932
G1 X147.458 Y124.694 E.13713
G1 X145.095 Y125.671 E.13499
G1 X142.57 Y126.277 E.13709
G1 X140.007 Y126.478 E.13572
G1 X79.993 Y126.478 E3.16834
G1 X77.431 Y126.277 E.13567
G1 X75.732 Y125.916 E.0917
G1 X74.087 Y125.381 E.09132
G1 X72.542 Y124.694 E.08927
G1 X70.293 Y123.316 E.13925
G1 X68.33 Y121.633 E.13651
G1 X67.199 Y120.376 E.08927
G1 X66.179 Y118.972 E.09162
G1 X64.948 Y116.706 E.13614
G1 X64.336 Y115.117 E.0899
G1 X63.887 Y113.452 E.09104
G1 X63.546 Y110.889 E.1365
G1 X63.615 Y108.251 E.13932
G1 X63.887 Y106.549 E.09099
G1 X64.331 Y104.9 E.09016
G1 X65.317 Y102.521 E.13596
G1 X66.179 Y101.028 E.09101
G1 X67.189 Y99.636 E.09079
G1 X68.968 Y97.76 E.13649
G1 X70.045 Y96.934 E.07166
M204 S500
G1 X70.293 Y97.24 F7800
M204 S100
G1 F1200
G1 X70.552 Y97.03 E.0176
G1 X72.717 Y95.701 E.13411
G1 X74.252 Y95.018 E.0887
G1 X75.855 Y94.498 E.08897
G1 X78.32 Y94.041 E.13235
G1 X79.996 Y93.953 E.0886
G1 X140.009 Y93.953 E3.16828
G1 X141.68 Y94.041 E.08834
G1 X143.334 Y94.303 E.08841
G1 X145.759 Y95.022 E.13353
G1 X147.287 Y95.703 E.08832
G1 X148.737 Y96.54 E.08839
G1 X150.735 Y98.073 E.13295
G1 X151.807 Y99.138 E.07978
G1 X152.981 Y100.566 E.0976
G1 X154.297 Y102.712 E.1329
G1 X155.268 Y105.06 E.13414
G1 X155.852 Y107.51 E.13297
G1 X156.025 Y109.163 E.08774
G1 X156.025 Y110.837 E.08838
G1 X155.696 Y113.339 E.13323
G1 X155.261 Y114.961 E.08866
G1 X154.661 Y116.524 E.08839
G1 X153.453 Y118.747 E.13357
G1 X152.483 Y120.083 E.08716
G1 X151.361 Y121.333 E.08868
G1 X149.425 Y122.987 E.13443
G1 X147.267 Y124.307 E.13355
G1 X145.748 Y124.982 E.08775
G1 X144.162 Y125.498 E.08805
G1 X141.697 Y125.957 E.13237
G1 X140.004 Y126.047 E.08951
G1 X79.996 Y126.047 E3.16802
G1 X77.492 Y125.85 E.1326
G1 X75.06 Y125.268 E.13202
G1 X72.733 Y124.307 E.13291
G1 X71.258 Y123.457 E.08987
G1 X69.264 Y121.927 E.13269
G1 X67.531 Y120.101 E.1329
G1 X66.113 Y118.041 E.13203
G1 X65.026 Y115.77 E.13292
G1 X64.502 Y114.162 E.08929
G1 X64.154 Y112.53 E.0881
G1 X63.976 Y110.86 E.08866
G1 X64.043 Y108.303 E.13504
G1 X64.308 Y106.644 E.08869
G1 X64.739 Y105.039 E.08774
G1 X65.344 Y103.465 E.08902
G1 X66.107 Y101.969 E.08866
G1 X67.019 Y100.566 E.08834
G1 X68.069 Y99.269 E.0881
G1 X69.261 Y98.077 E.089
G1 X70.246 Y97.277 E.06699
M204 S500
G1 X70.529 Y97.646 F7800
M204 S100
G1 F1200
G1 X71.507 Y96.896 E.06507
G1 X72.908 Y96.088 E.08538
G1 X74.401 Y95.423 E.08629
G1 X75.972 Y94.913 E.0872
G1 X77.543 Y94.579 E.08479
G1 X79.999 Y94.384 E.13007
G1 X140.007 Y94.384 E3.16802
G1 X141.629 Y94.47 E.08575
G1 X144.028 Y94.913 E.12879
G1 X146.349 Y95.733 E.12996
G1 X147.805 Y96.475 E.08627
G1 X149.167 Y97.359 E.08572
G1 X150.451 Y98.397 E.08717
G1 X151.485 Y99.425 E.07698
G1 X152.635 Y100.824 E.09561
G1 X153.516 Y102.18 E.08537
G1 X154.26 Y103.636 E.08632
G1 X154.856 Y105.188 E.08777
G1 X155.425 Y107.571 E.12934
G1 X155.594 Y109.18 E.08541
G1 X155.594 Y110.82 E.08658
G1 X155.425 Y112.429 E.08541
G1 X155.083 Y114.044 E.08715
G1 X154.579 Y115.593 E.086
G1 X153.531 Y117.795 E.12875
G1 X152.144 Y119.816 E.12941
G1 X150.459 Y121.595 E.12936
G1 X149.167 Y122.642 E.08779
G1 X147.077 Y123.92 E.12933
G1 X144.828 Y124.85 E.12848
G1 X142.446 Y125.423 E.12934
G1 X140.001 Y125.616 E.12948
G1 X79.999 Y125.616 E3.1677
G1 X77.554 Y125.423 E.12948
G1 X75.955 Y125.083 E.0863
G1 X74.407 Y124.579 E.08595
G1 X72.923 Y123.92 E.08572
G1 X70.81 Y122.625 E.13084
G1 X69.549 Y121.603 E.08569
G1 X68.393 Y120.447 E.08631
G1 X66.902 Y118.502 E.12938
G1 X66.088 Y117.092 E.08595
G1 X65.427 Y115.609 E.08572
G1 X64.729 Y113.261 E.12932
G1 X64.407 Y110.831 E.12941
G1 X64.472 Y108.354 E.13081
G1 X64.729 Y106.74 E.08628
G1 X65.148 Y105.177 E.08543
G1 X66.085 Y102.913 E.12936
G1 X67.365 Y100.824 E.12934
G1 X68.393 Y99.553 E.0863
G1 X69.553 Y98.393 E.08661
G1 X70.481 Y97.683 E.06169
G1 E-6 F900
M204 S500
; printing object Stringing Test.STL id:0 copy 0
G1 X67.449 Y102.74 F7800
G1 E6 F900
M204 S100
;TYPE:External perimeter
;WIDTH:0.5
G1 F1200
G1 X67.839 Y102.103 E.03943
G1 X68.269 Y101.477 E.04009
G1 X68.732 Y100.875 E.04009
G1 X69.225 Y100.298 E.04007
G1 X69.747 Y99.747 E.04007
G1 X70.298 Y99.225 E.04007
G1 X70.875 Y98.732 E.04007
G1 X71.35 Y98.367 E.03163
G1 X72.104 Y97.839 E.0486
G1 X72.75 Y97.443 E.04
G1 X73.417 Y97.081 E.04006
G1 X74.102 Y96.754 E.04007
G1 X74.804 Y96.463 E.04012
G1 X75.519 Y96.21 E.04004
G1 X76.247 Y95.994 E.04009
G1 X76.985 Y95.817 E.04007
G1 X77.732 Y95.679 E.0401
G1 X78.484 Y95.58 E.04004
G1 X79.241 Y95.52 E.04009
G1 X80.007 Y95.5 E.04045
G1 X140.296 Y95.508 E3.18285
G1 X141.518 Y95.58 E.06463
G1 X142.268 Y95.679 E.03994
G1 X143.015 Y95.817 E.0401
G1 X143.753 Y95.994 E.04007
G1 X144.327 Y96.164 E.0316
G1 X145.197 Y96.464 E.04858
G1 X145.898 Y96.754 E.04005
G1 X146.583 Y97.081 E.04007
G1 X147.25 Y97.443 E.04006
G1 X147.897 Y97.839 E.04005
G1 X148.523 Y98.269 E.04009
G1 X149.125 Y98.732 E.04009
G1 X149.702 Y99.225 E.04007
G1 X150.253 Y99.747 E.04007
G1 X150.665 Y100.182 E.03163
G1 X151.518 Y101.2 E.07012
G1 X151.952 Y101.799 E.03905
G1 X152.362 Y102.431 E.03977
G1 X152.74 Y103.087 E.03997
G1 X153.084 Y103.762 E.04
G1 X153.392 Y104.455 E.04004
G1 X153.664 Y105.163 E.04004
G1 X153.898 Y105.884 E.04002
G1 X154.095 Y106.617 E.04007
G1 X154.252 Y107.359 E.04004
G1 X154.371 Y108.109 E.04009
G1 X154.45 Y108.863 E.04002
G1 X154.49 Y109.621 E.04007
G1 X154.48 Y110.759 E.06008
G1 X154.42 Y111.516 E.04009
G1 X154.321 Y112.268 E.04004
G1 X154.183 Y113.015 E.0401
G1 X154.006 Y113.753 E.04007
G1 X153.79 Y114.481 E.04009
G1 X153.537 Y115.196 E.04004
G1 X153.246 Y115.898 E.04012
G1 X152.919 Y116.583 E.04007
G1 X152.557 Y117.25 E.04006
G1 X152.161 Y117.897 E.04005
G1 X151.731 Y118.523 E.04009
G1 X151.268 Y119.125 E.04009
G1 X150.775 Y119.702 E.04007
G1 X150.253 Y120.253 E.04007
G1 X149.702 Y120.775 E.04007
G1 X149.125 Y121.268 E.04007
G1 X148.523 Y121.731 E.04009
G1 X147.897 Y122.161 E.04009
G1 X147.25 Y122.557 E.04005
G1 X146.583 Y122.919 E.04006
G1 X145.898 Y123.246 E.04007
G1 X145.196 Y123.537 E.04012
G1 X144.481 Y123.79 E.04004
G1 X143.753 Y124.006 E.04009
G1 X143.015 Y124.183 E.04007
G1 X142.268 Y124.321 E.0401
G1 X141.516 Y124.42 E.04004
G1 X140.759 Y124.48 E.04009
G1 X139.993 Y124.5 E.04045
G1 X80.007 Y124.5 E3.16686
G1 X79.241 Y124.48 E.04045
G1 X78.484 Y124.42 E.04009
G1 X77.732 Y124.321 E.04004
G1 X76.985 Y124.183 E.0401
G1 X76.247 Y124.006 E.04007
G1 X75.519 Y123.79 E.04009
G1 X74.804 Y123.537 E.04004
G1 X74.102 Y123.246 E.04012
G1 X73.417 Y122.919 E.04007
G1 X72.75 Y122.557 E.04006
G1 X72.103 Y122.161 E.04005
G1 X71.477 Y121.731 E.04009
G1 X70.875 Y121.268 E.04009
G1 X70.298 Y120.775 E.04007
G1 X69.747 Y120.253 E.04007
