; generated by PrusaSlicer 2.9.4 on 2026-01-10 at 17:42:36 UTC

;

; external perimeters extrusion width = 0.73mm
; perimeters extrusion width = 0.76mm
; infill extrusion width = 0.76mm
; solid infill extrusion width = 0.76mm
; top infill extrusion width = 0.50mm
; support material extrusion width = 0.60mm
; first layer extrusion width = 0.73mm

; external perimeters extrusion width = 0.73mm
; perimeters extrusion width = 0.76mm
; infill extrusion width = 0.76mm
; solid infill extrusion width = 0.76mm
; top infill extrusion width = 0.50mm
; support material extrusion width = 0.60mm
; first layer extrusion width = 0.73mm

M201 X500 Y500 Z100 E5000 ; sets maximum accelerations, mm/sec^2
M203 X500 Y500 Z10 E60 ; sets maximum feedrates, mm / sec
M204 S500 T1000 ; sets acceleration (S) and retract acceleration (R), mm/sec^2
M205 X8.00 Y8.00 Z0.40 E5.00 ; sets the jerk limits, mm/sec
M205 S0 T0 ; sets the minimum extruding and travel feed rate, mm/sec

; printing object Shape-Box id:1 copy 0
; stop printing object Shape-Box id:1 copy 0
; printing object Shape-Box id:0 copy 0
; stop printing object Shape-Box id:0 copy 0

;TYPE:Custom
G90 ; use absolute coordinates
M83 ; extruder relative mode
M104 S190 ; set temporary nozzle temp to prevent oozing during homing
M140 S80 ; set final bed temp ; G4 S30 ; allow partial nozzle warmup
G28 ; home all axis
G1 Z50 F240
G1 X2.0 Y10 F3000
M104 S255 ; set final nozzle temp
M190 S80 ; wait for bed temp to stabiliz; M109 S255 ; wait for nozzle temp to stabilize
G1 Z0 F240
G1 Z-0.06 F240
G1 Z0.2 F240
G92 E0
G1 X2.0 Y140 E10 F1500 ; prime the nozzle
G1 X2.3 Y140 F5000
G92 E0
G1 X2.3 Y10 E10 F1200 ; prime the nozzle
G92 E0
G21 ; set units to millimeters
G90 ; use absolute coordinates
M83 ; use relative distances for extrusion
; Filament gcode
M107
;LAYER_CHANGE
;Z:0.32
;HEIGHT:0.32
G1 E-5 F900
G1 Z.32 F7800
; printing object Shape-Box id:0 copy 0
G1 X169.956 Y110.401
G1 E5 F360
M204 S100
;TYPE:Perimeter
;WIDTH:0.577345
G1 F1200
G1 X169.893 Y110.401 E.00392
G1 X169.861 Y110.456 E.00396
G1 X169.893 Y110.511 E.00396
G1 X169.956 Y110.511 E.00392
G1 X169.988 Y110.456 E.00396
M204 S500
G1 X169.34 Y111.041 F7800
M204 S100
;TYPE:External perimeter
;WIDTH:0.73
G1 F934.036
G1 X169.34 Y109.871 E.09471
G1 F956.92
G1 X170.51 Y109.871 E.09471
G1 F979.269
G1 X170.51 Y111.041 E.09471
G1 X169.43 Y111.041 E.08742
G1 E-2.5 F900
;WIPE_START
G1 F6240
G1 X169.34 Y111.041 E-.01233
G1 X169.34 Y109.871 E-.16031
G1 X170.51 Y109.871 E-.16031
G1 X170.51 Y111.041 E-.16031
G1 X169.43 Y111.041 E-.14798
;WIPE_END
G1 E-1.85876 F900
M204 S500
; stop printing object Shape-Box id:0 copy 0
; printing object Shape-Box id:1 copy 0
G1 X58.186 Y111.389 F7800
G1 E5 F360
M204 S100
;WIDTH:0.578673
G1 F1200
G1 X58.186 Y109.709 E.10487
;LAYER_CHANGE
;Z:0.44
;HEIGHT:0.12
;BEFORE_LAYER_CHANGE
G92 E0
;Layer height: 0.44, layer number: 1



G92 Z0.29 ; Set the new Z height as absolute



G92 Z0.26 ; Set the new Z height as absolute



M117 Layer number: 1
G1 E-2.5 F900
;WIPE_START
G1 F6240
G1 X58.186 Y111.389 E-.23019
;WIPE_END
G1 E-2.26981 F900
G1 Z.44 F7800
;AFTER_LAYER_CHANGE
;0.44

M104 S230 ; set temperature
M204 S500
; stop printing object Shape-Box id:1 copy 0
; printing object Shape-Box id:0 copy 0
G1 X169.456 Y110.925
G1 E5 F360
M204 S100
;WIDTH:0.962875
G1 F2999.995
G1 X169.456 Y109.988 E.0403
G1 X170.393 Y109.988 E.0403
G1 X170.393 Y110.925 E.0403
G1 X169.546 Y110.925 E.03643
G1 E-2.5 F900
;WIPE_START
G1 F6240
G1 X169.456 Y110.925 E-.01233
G1 X169.456 Y109.988 E-.12839
G1 X170.393 Y109.988 E-.12839
G1 X170.393 Y110.925 E-.12839
G1 X169.546 Y110.925 E-.11606
;WIPE_END
G1 E-1.98644 F900
M204 S500
; stop printing object Shape-Box id:0 copy 0
; printing object Shape-Box id:1 copy 0
G1 X58.186 Y111.169 F7800
G1 E5 F360
M204 S100
;WIDTH:0.659998
G1 F799.999
G1 X58.186 Y109.929 E.0361
;LAYER_CHANGE
;Z:0.56
;HEIGHT:0.12
;BEFORE_LAYER_CHANGE
G92 E0
;Layer height: 0.56, layer number: 2



G92 Z0.41 ; Set the new Z height as absolute





M117 Layer number: 2
G1 E-2.5 F900
;WIPE_START
G1 F6240
G1 X58.186 Y111.169 E-.1699
;WIPE_END
G1 E-2.3301 F900
G1 Z.56 F7800
;AFTER_LAYER_CHANGE
;0.56

M204 S500
; stop printing object Shape-Box id:1 copy 0
; printing object Shape-Box id:0 copy 0
G1 X169.456 Y110.925
G1 E5 F360
M204 S100
;WIDTH:0.962875
G1 F2999.995
G1 X169.456 Y109.988 E.0403
G1 X170.393 Y109.988 E.0403
G1 X170.393 Y110.925 E.0403
G1 X169.546 Y110.925 E.03643
G1 E-2.5 F900
;WIPE_START
G1 F6240
G1 X169.456 Y110.925 E-.01233
G1 X169.456 Y109.988 E-.12839
G1 X170.393 Y109.988 E-.12839
G1 X170.393 Y110.925 E-.12839
G1 X169.546 Y110.925 E-.11606
;WIPE_END
G1 E-1.98644 F900
M204 S500
; stop printing object Shape-Box id:0 copy 0
; printing object Shape-Box id:1 copy 0
G1 X58.186 Y111.049 F7800
G1 E5 F360
M204 S100
;WIDTH:0.9
G1 F1879.999
G1 X58.186 Y110.049 E.04013
M106 S209.1
;LAYER_CHANGE
;Z:0.68
;HEIGHT:0.12
;BEFORE_LAYER_CHANGE
G92 E0
;Layer height: 0.68, layer number: 3



G92 Z0.53 ; Set the new Z height as absolute





M117 Layer number: 3
G1 E-2.5 F900
;WIPE_START
G1 F6240
G1 X58.186 Y111.049 E-.13702
;WIPE_END
G1 E-2.36298 F900
G1 Z.68 F7800
;AFTER_LAYER_CHANGE
;0.68

M204 S500
; stop printing object Shape-Box id:1 copy 0
; printing object Shape-Box id:0 copy 0
G1 X169.456 Y110.925
G1 E5 F360
M204 S100
;WIDTH:0.962875
G1 F2999.995
G1 X169.456 Y109.988 E.0403
G1 X170.393 Y109.988 E.0403
G1 X170.393 Y110.925 E.0403
G1 X169.546 Y110.925 E.03643
G1 E-2.5 F900
;WIPE_START
G1 F6240
G1 X169.456 Y110.925 E-.01233
G1 X169.456 Y109.988 E-.12839
G1 X170.393 Y109.988 E-.12839
G1 X170.393 Y110.925 E-.12839
G1 X169.546 Y110.925 E-.11606
;WIPE_END
G1 E-1.98644 F900
M204 S500
; stop printing object Shape-Box id:0 copy 0
; printing object Shape-Box id:1 copy 0
G1 X58.465 Y109.89 F7800
G1 E5 F360
M204 S100
;WIDTH:0.582875
G1 F895.167
G1 X58.465 Y111.207 E.03368
G1 F894.868
G1 X57.908 Y111.207 E.01424
G1 X57.908 Y109.89 E.03368
G1 F1058.04
G1 X58.375 Y109.89 E.01194
;LAYER_CHANGE
;Z:0.8
;HEIGHT:0.12
;BEFORE_LAYER_CHANGE
G92 E0
;Layer height: 0.8, layer number: 4



G92 Z0.65 ; Set the new Z height as absolute





M117 Layer number: 4
G1 E-2.5 F900
;WIPE_START
G1 F6240
G1 X58.465 Y109.89 E-.01233
G1 X58.465 Y111.207 E-.18045
G1 X57.908 Y111.207 E-.07632
G1 X57.908 Y109.89 E-.18045
G1 X58.375 Y109.89 E-.06399
;WIPE_END
G1 E-1.98646 F900
G1 Z.8 F7800
;AFTER_LAYER_CHANGE
;0.8

M204 S500
; stop printing object Shape-Box id:1 copy 0
; printing object Shape-Box id:0 copy 0
G1 X169.456 Y110.925
G1 E5 F360
M204 S100
;WIDTH:0.962875
G1 F2999.995
G1 X169.456 Y109.988 E.0403
G1 X170.393 Y109.988 E.0403
G1 X170.393 Y110.925 E.0403
G1 X169.546 Y110.925 E.03643
G1 E-2.5 F900
;WIPE_START
G1 F6240
G1 X169.456 Y110.925 E-.01233
G1 X169.456 Y109.988 E-.12839
G1 X170.393 Y109.988 E-.12839
G1 X170.393 Y110.925 E-.12839
G1 X169.546 Y110.925 E-.11606
;WIPE_END
G1 E-1.98644 F900
M204 S500
; stop printing object Shape-Box id:0 copy 0
; printing object Shape-Box id:1 copy 0
G1 X58.525 Y109.95 F7800
G1 E5 F360
M204 S100
;WIDTH:0.702876
G1 F1496.169
G1 X58.525 Y111.147 E.0372
G1 F1492.162
G1 X57.848 Y111.147 E.02104
G1 F1488.217
G1 X57.848 Y109.95 E.0372
G1 F1565.891
G1 X58.435 Y109.95 E.01824
M106 S211.65
;LAYER_CHANGE
;Z:0.92
;HEIGHT:0.12
;BEFORE_LAYER_CHANGE
G92 E0
;Layer height: 0.92, layer number: 5



G92 Z0.77 ; Set the new Z height as absolute





M117 Layer number: 5
G1 E-2.5 F900
;WIPE_START
G1 F6240
G1 X58.525 Y109.95 E-.01233
G1 X58.525 Y111.147 E-.16401
G1 X57.848 Y111.147 E-.09276
G1 X57.848 Y109.95 E-.16401
G1 X58.435 Y109.95 E-.08043
;WIPE_END
G1 E-1.98646 F900
G1 Z.92 F7800
;AFTER_LAYER_CHANGE
;0.92

M204 S500
; stop printing object Shape-Box id:1 copy 0
; printing object Shape-Box id:0 copy 0
G1 X169.456 Y110.925
G1 E5 F360
M204 S100
;WIDTH:0.962875
G1 F2999.995
G1 X169.456 Y109.988 E.0403
G1 X170.393 Y109.988 E.0403
G1 X170.393 Y110.925 E.0403
G1 X169.546 Y110.925 E.03643
G1 E-2.5 F900
;WIPE_START
G1 F6240
G1 X169.456 Y110.925 E-.01233
G1 X169.456 Y109.988 E-.12839
G1 X170.393 Y109.988 E-.12839
G1 X170.393 Y110.925 E-.12839
G1 X169.546 Y110.925 E-.11606
;WIPE_END
G1 E-1.98644 F900
M204 S500
; stop printing object Shape-Box id:0 copy 0
; printing object Shape-Box id:1 copy 0
G1 X58.585 Y110.01 F7800
G1 E5 F360
M204 S100
;WIDTH:0.822876
G1 F1775.027
G1 X58.585 Y111.087 E.0394
G1 X57.788 Y111.087 E.02916
G1 X57.788 Y110.01 E.0394
G1 X58.495 Y110.01 E.02587
;LAYER_CHANGE
;Z:1.04
;HEIGHT:0.12
;BEFORE_LAYER_CHANGE
G92 E0
;Layer height: 1.04, layer number: 6







M117 Layer number: 6
G1 E-2.5 F900
;WIPE_START
G1 F6240
G1 X58.585 Y110.01 E-.01233
G1 X58.585 Y111.087 E-.14757
G1 X57.788 Y111.087 E-.1092
G1 X57.788 Y110.01 E-.14757
G1 X58.495 Y110.01 E-.09687
;WIPE_END
G1 E-1.98646 F900
G1 Z1.04 F7800
;AFTER_LAYER_CHANGE
;1.04

M204 S500
; stop printing object Shape-Box id:1 copy 0
; printing object Shape-Box id:0 copy 0
G1 X169.456 Y110.925
G1 E5 F360
M204 S100
;WIDTH:0.962875
G1 F2999.995
G1 X169.456 Y109.988 E.0403
G1 X170.393 Y109.988 E.0403
G1 X170.393 Y110.925 E.0403
G1 X169.546 Y110.925 E.03643
G1 E-2.5 F900
;WIPE_START
G1 F6240
G1 X169.456 Y110.925 E-.01233
G1 X169.456 Y109.988 E-.12839
G1 X170.393 Y109.988 E-.12839
G1 X170.393 Y110.925 E-.12839
G1 X169.546 Y110.925 E-.11606
;WIPE_END
G1 E-1.98644 F900
M204 S500
; stop printing object Shape-Box id:0 copy 0
; printing object Shape-Box id:1 copy 0
G1 X58.645 Y110.07 F7800
G1 E5 F360
M204 S100
;WIDTH:0.942876
G1 F1930.93
G1 X58.645 Y111.027 E.04028
G1 X57.728 Y111.027 E.0386
G1 X57.728 Y110.07 E.04028
G1 X58.555 Y110.07 E.03481
;LAYER_CHANGE
;Z:1.16
;HEIGHT:0.12
;BEFORE_LAYER_CHANGE
G92 E0
;Layer height: 1.16, layer number: 7







M117 Layer number: 7
G1 E-2.5 F900
;WIPE_START
G1 F6240
G1 X58.645 Y110.07 E-.01233
G1 X58.645 Y111.027 E-.13113
G1 X57.728 Y111.027 E-.12565
G1 X57.728 Y110.07 E-.13113
G1 X58.555 Y110.07 E-.11331
;WIPE_END
G1 E-1.98645 F900
G1 Z1.16 F7800
;AFTER_LAYER_CHANGE
;1.16

M204 S500
; stop printing object Shape-Box id:1 copy 0
; printing object Shape-Box id:0 copy 0
G1 X169.456 Y110.925
G1 E5 F360
M204 S100
;WIDTH:0.962875
G1 F2999.995
G1 X169.456 Y109.988 E.0403
G1 X170.393 Y109.988 E.0403
G1 X170.393 Y110.925 E.0403
G1 X169.546 Y110.925 E.03643
G1 E-2.5 F900
;WIPE_START
G1 F6240
G1 X169.456 Y110.925 E-.01233
G1 X169.456 Y109.988 E-.12839
G1 X170.393 Y109.988 E-.12839
G1 X170.393 Y110.925 E-.12839
G1 X169.546 Y110.925 E-.11606
;WIPE_END
G1 E-1.98644 F900
M204 S500
; stop printing object Shape-Box id:0 copy 0
; printing object Shape-Box id:1 copy 0
G1 X58.755 Y110.08 F7800
G1 E5 F360
M204 S100
;WIDTH:0.962876
G1 F1953.135
G1 X58.755 Y111.017 E.0403
G1 X57.618 Y111.017 E.04891
G1 X57.618 Y110.08 E.0403
G1 X58.665 Y110.08 E.04503
M106 S209.1
;LAYER_CHANGE
;Z:1.28
;HEIGHT:0.12
;BEFORE_LAYER_CHANGE
G92 E0
;Layer height: 1.28, layer number: 8







M117 Layer number: 8
G1 E-2.5 F900
;WIPE_START
G1 F6240
G1 X58.755 Y110.08 E-.01233
G1 X58.755 Y111.017 E-.12839
G1 X57.618 Y111.017 E-.15579
G1 X57.618 Y110.08 E-.12839
G1 X58.665 Y110.08 E-.14346
;WIPE_END
G1 E-1.93164 F900
G1 Z1.28 F7800
;AFTER_LAYER_CHANGE
;1.28

M204 S500
; stop printing object Shape-Box id:1 copy 0
; printing object Shape-Box id:0 copy 0
G1 X169.456 Y110.925
G1 E5 F360
M204 S100
;WIDTH:0.962875
G1 F2999.995
G1 X169.456 Y109.988 E.0403
G1 X170.393 Y109.988 E.0403
G1 X170.393 Y110.925 E.0403
G1 X169.546 Y110.925 E.03643
G1 E-2.5 F900
;WIPE_START
G1 F6240
G1 X169.456 Y110.925 E-.01233
G1 X169.456 Y109.988 E-.12839
G1 X170.393 Y109.988 E-.12839
G1 X170.393 Y110.925 E-.12839
G1 X169.546 Y110.925 E-.11606
;WIPE_END
G1 E-1.98644 F900
M204 S500
; stop printing object Shape-Box id:0 copy 0
; printing object Shape-Box id:1 copy 0
G1 X58.875 Y110.08 F7800
G1 E5 F360
M204 S100
;WIDTH:0.962876
G1 F1953.135
G1 X58.875 Y111.017 E.0403
G1 X57.498 Y111.017 E.05923
G1 X57.498 Y110.08 E.0403
G1 X58.785 Y110.08 E.05536
;LAYER_CHANGE
;Z:1.4
;HEIGHT:0.12
;BEFORE_LAYER_CHANGE
G92 E0
;Layer height: 1.4, layer number: 9







M117 Layer number: 9
G1 E-2.5 F900
;WIPE_START
G1 F6240
G1 X58.875 Y110.08 E-.01233
G1 X58.875 Y111.017 E-.12839
G1 X57.498 Y111.017 E-.18868
G1 X57.498 Y110.08 E-.12839
G1 X58.785 Y110.08 E-.17634
;WIPE_END
G1 E-1.86587 F900
G1 Z1.4 F7800
;AFTER_LAYER_CHANGE
;1.4

M204 S500
; stop printing object Shape-Box id:1 copy 0
; printing object Shape-Box id:0 copy 0
G1 X169.456 Y110.925
G1 E5 F360
M204 S100
;WIDTH:0.962875
G1 F2999.995
G1 X169.456 Y109.988 E.0403
G1 X170.393 Y109.988 E.0403
G1 X170.393 Y110.925 E.0403
G1 X169.546 Y110.925 E.03643
G1 E-2.5 F900
;WIPE_START
G1 F6240
G1 X169.456 Y110.925 E-.01233
G1 X169.456 Y109.988 E-.12839
G1 X170.393 Y109.988 E-.12839
G1 X170.393 Y110.925 E-.12839
G1 X169.546 Y110.925 E-.11606
;WIPE_END
G1 E-1.98644 F900
M204 S500
; stop printing object Shape-Box id:0 copy 0
; printing object Shape-Box id:1 copy 0
G1 X58.995 Y110.08 F7800
G1 E5 F360
M204 S100
;WIDTH:0.962876
G1 F1953.135
G1 X58.995 Y111.017 E.0403
G1 X57.378 Y111.017 E.06955
G1 X57.378 Y110.08 E.0403
G1 X58.905 Y110.08 E.06568
;LAYER_CHANGE
;Z:1.52
;HEIGHT:0.12
;BEFORE_LAYER_CHANGE
G92 E0
;Layer height: 1.52, layer number: 10







M117 Layer number: 10
G1 E-2.5 F900
;WIPE_START
G1 F6240
G1 X58.995 Y110.08 E-.01233
G1 X58.995 Y111.017 E-.12839
G1 X57.378 Y111.017 E-.22156
G1 X57.378 Y110.08 E-.12839
G1 X58.905 Y110.08 E-.20923
;WIPE_END
G1 E-1.8001 F900
G1 Z1.52 F7800
;AFTER_LAYER_CHANGE
;1.52

M204 S500
; stop printing object Shape-Box id:1 copy 0
; printing object Shape-Box id:0 copy 0
G1 X169.456 Y110.925
G1 E5 F360
M204 S100
;WIDTH:0.962875
G1 F2999.995
G1 X169.456 Y109.988 E.0403
G1 X170.393 Y109.988 E.0403
G1 X170.393 Y110.925 E.0403
G1 X169.546 Y110.925 E.03643
G1 E-2.5 F900
;WIPE_START
G1 F6240
G1 X169.456 Y110.925 E-.01233
G1 X169.456 Y109.988 E-.12839
G1 X170.393 Y109.988 E-.12839
G1 X170.393 Y110.925 E-.12839
G1 X169.546 Y110.925 E-.11606
;WIPE_END
G1 E-1.98644 F900
M204 S500
; stop printing object Shape-Box id:0 copy 0
; printing object Shape-Box id:1 copy 0
G1 X59.115 Y110.08 F7800
G1 E5 F360
M204 S100
;WIDTH:0.962876
G1 F1953.135
G1 X59.115 Y111.017 E.0403
G1 X57.349 Y111.017 E.07596
G1 F1961.565
G1 X57.349 Y110.08 E.0403
G1 F1953.135
G1 X59.025 Y110.08 E.07209
;LAYER_CHANGE
;Z:1.64
;HEIGHT:0.12
;BEFORE_LAYER_CHANGE
G92 E0
;Layer height: 1.64, layer number: 11







M117 Layer number: 11
G1 E-2.5 F900
;WIPE_START
G1 F6240
G1 X59.115 Y110.08 E-.01233
G1 X59.115 Y111.017 E-.12839
G1 X57.349 Y111.017 E-.24198
G1 X57.349 Y110.08 E-.12839
G1 X59.025 Y110.08 E-.22964
;WIPE_END
G1 E-1.75927 F900
G1 Z1.64 F7800
;AFTER_LAYER_CHANGE
;1.64

M204 S500
; stop printing object Shape-Box id:1 copy 0
; printing object Shape-Box id:0 copy 0
G1 X169.456 Y110.925
G1 E5 F360
M204 S100
;WIDTH:0.962875
G1 F2999.995
G1 X169.456 Y109.988 E.0403
G1 X170.393 Y109.988 E.0403
G1 X170.393 Y110.925 E.0403
G1 X169.546 Y110.925 E.03643
G1 E-2.5 F900
;WIPE_START
G1 F6240
G1 X169.456 Y110.925 E-.01233
G1 X169.456 Y109.988 E-.12839
G1 X170.393 Y109.988 E-.12839
G1 X170.393 Y110.925 E-.12839
G1 X169.546 Y110.925 E-.11606
;WIPE_END
G1 E-1.98644 F900
M204 S500
; stop printing object Shape-Box id:0 copy 0
; printing object Shape-Box id:1 copy 0
G1 X59.235 Y110.08 F7800
G1 E5 F360
M204 S100
;WIDTH:0.962876
G1 F1953.135
G1 X59.235 Y111.017 E.0403
G1 X57.469 Y111.017 E.07596
G1 F1961.569
G1 X57.469 Y110.08 E.0403
G1 F1953.135
G1 X59.145 Y110.08 E.07209
;LAYER_CHANGE
;Z:1.76
;HEIGHT:0.12
;BEFORE_LAYER_CHANGE
G92 E0
;Layer height: 1.76, layer number: 12







M117 Layer number: 12
G1 E-2.5 F900
;WIPE_START
G1 F6240
G1 X59.235 Y110.08 E-.01233
G1 X59.235 Y111.017 E-.12839
G1 X57.469 Y111.017 E-.24198
G1 X57.469 Y110.08 E-.12839
G1 X59.145 Y110.08 E-.22964
;WIPE_END
G1 E-1.75927 F900
G1 Z1.76 F7800
;AFTER_LAYER_CHANGE
;1.76

M204 S500
; stop printing object Shape-Box id:1 copy 0
; printing object Shape-Box id:0 copy 0
G1 X169.456 Y110.925
G1 E5 F360
M204 S100
;WIDTH:0.962875
G1 F2999.995
G1 X169.456 Y109.988 E.0403
G1 X170.393 Y109.988 E.0403
G1 X170.393 Y110.925 E.0403
G1 X169.546 Y110.925 E.03643
G1 E-2.5 F900
;WIPE_START
G1 F6240
